X: 2335
T: ECLIPSE HORNPIPE
R: hornpipe
B: Kerr's v.2 p.37 #335
Z: 2016 John Chambers <jc:trillian.mit.edu>
M: C
L: 1/8
K: Bb
(d>c) |\
B>AB>c B>Fd>c | B>AB>c B>Fd>c |\
B>cd>e f>dg>f | e>dc>B A>FG>A |
B>AB>c B>Fd>c | B>AB>c B>Fd>c |\
B>fdB A>FG>A | B2d2 B2 :|
|: (A>B) |\
c>AF>A c>Ad>B | e>cA>c e>cg>f |\
e>dc>=B c>Gc>_B | A>=ef>e f>_ed>c |
B>AB>c B>Fd>c | B>AB>c B>Fd>c |\
B>fdB A>FG>A | B2d2 B2 :|
